X:1
T:Open Up Your Heart
T:Open up your heart
T:(and let the sunshine in)
T:Stuart Hamblen
C:Stuart Hamblen
Z:All Rights Reserved
L:1/4
M:4/4
K:G
V:1 treble nm="Electric Piano"
%%MIDI program 4
V:1
|:"G" D"^Verse:" G G F |"C" E G- G c |"G" B ^A B G | D3 F/G/ |"D7" A ^G A F | D D G A | %6
w: 1.Mom- my told me|some- thing * a|lit- tle girl should|know its *|all a- bout the|dev- il and I've|
w: 2.When you are un-|hap- py * the|dev- il wears a|grin but *|oh he starts to|run- ning when the|
w: 3.I for- get to|say my pray;rs the|dev- il jumps with|glee but he|feels so aw- ful|aw- ful when he|
"G" B ^A"D7" B A |"G" G3 G |"G" D G G F |"C" E G G c |"G" B ^A B G | D3 F/G/ |"D7" A ^G A F | %13
w: learned to hate him|so she|said he caus- es|troub- le when you|let him in the|room he will|nev- er ev- er|
w: light comes pour- ing|in I|know he'll be un-|hap- py cause I'll|nev- er wear a|frown may- be|if we keep on|
w: sees me on my|knees so|if you;re full of|troub- le and you|nev- er seem to|win just *|op- en up your|
 D F A c |"G" B G"D7" A F |"G" G2"^Chorus:" z2 | z G"D7" F"G7" =F |"C" E2 G2 | c3 z |"G" B ^A B G | %20
w: leave you if your|heart is filled with|gloom|so let the|sun- shine|in|face it with a|
w: smil- ing he;ll get|tired of hang- ing|round|||||
w: heart and let the|sun * shine *|in|||||
 D3 z |"D7" A ^G A F | D3 A |"G" B ^A"D7" B =A |"G" G G"D7" F"G7" =F |"C" E2 G2 | c3 z | %27
w: grin|smil- ers nev- er|lose and|frown- ers nev- er|win so let the|sun- shine|in|
w: |||||||
w: |||||||
"G" B ^A B G | D3 z |"D7" A ^G A F | D F A c |1 B2"^2." A2 ||"G" G3 G :|3 B2 A2 || G3 z |] %35
w: face it with a|grin|Op- en up your|heart and let the|sun- shine|in 3.If|sun- shine|in.|
w: ||||||||
w: ||||||||

